arkscan/icons/bitforex.svg

<svg width="200" height="200" viewBox="0 0 200 200" fill="none" xmlns="http://www.w3.org/2000/svg">
<path fill-rule="evenodd" clip-rule="evenodd" d="M70 0C31.3401 0 0 31.3401 0 70V130C0 168.66 31.3401 200 70 200H130C168.66 200 200 168.66 200 130V70C200 31.3401 168.66 0 130 0H70ZM57.3411 68.3521C39.6047 68.3521 35.8423 56.1173 36.1782 50H16.0232C15.5193 62.896 23.0776 88.688 57.3411 88.688V112C57.3411 135.954 75.0752 156.446 99.0229 157C123.502 157.566 142.682 136.485 142.682 112V88.688C176.945 88.688 184.504 62.896 184 50H163.845C164.181 56.1173 160.418 68.3521 142.682 68.3521V50H122.023V68.3521H78V50H57.3411V68.3521ZM78.0229 87H122.023V114C122.023 126.15 112.173 136 100.023 136C87.8728 136 78.0229 126.15 78.0229 114V87Z" fill="#5AC096"/>
</svg>

<svg width="200" height="200" fill="none" xmlns="http://www.w3.org/2000/svg"><path fill-rule="evenodd" clip-rule="evenodd" d="M70 0C31.34 0 0 31.34 0 70v60c0 38.66 31.34 70 70 70h60c38.66 0 70-31.34 70-70V70c0-38.66-31.34-70-70-70H70ZM57.341 68.352c-17.736 0-21.499-12.235-21.163-18.352H16.023c-.504 12.896 7.055 38.688 41.318 38.688V112c0 23.954 17.734 44.446 41.682 45 24.479.566 43.659-20.515 43.659-45V88.688c34.263 0 41.822-25.792 41.318-38.688h-20.155c.336 6.117-3.427 18.352-21.163 18.352V50h-20.659v18.352H78V50H57.341v18.352ZM78.023 87h44v27c0 12.15-9.85 22-22 22s-22-9.85-22-22V87Z" fill="#5AC096"/></svg>
